contributed-vectors/kma.svg

<svg width="192" height="192" viewBox="0 0 192 192" fill="none" xmlns="http://www.w3.org/2000/svg">
<g clip-path="url(#clip0)">
<path d="M172.5 29.1V162.9C172.5 168.2 168.2 172.5 162.9 172.5H29.1C23.8 172.5 19.5 168.2 19.5 162.9V29.1C19.5 23.8 23.8 19.5 29.1 19.5H163C168.2 19.5 172.5 23.8 172.5 29.1Z" fill="#8E6F60"/>
<path d="M83.9526 102.031C81.6693 99.6801 78.9158 95.8521 77.2033 90.3116C77.2033 90.3116 77.1361 90.1101 77.0354 90.1101C76.9347 90.1101 76.8339 90.3452 76.8339 90.3452C73.0731 102.534 64.0069 107.336 60.9176 108.377C60.7498 108.444 60.7498 108.578 60.7498 108.646C62.328 112.944 64.712 116.839 67.7005 120.197C67.7677 120.23 67.8684 120.297 68.0363 120.197C77.7406 114.656 83.281 103.844 84.0198 102.333C84.0869 102.198 84.0198 102.098 83.9526 102.031Z" fill="#F9DE81"/>
<path d="M105.98 102.031C106.014 102.031 106.014 102.031 105.98 102.031C108.264 99.6801 111.017 95.8521 112.763 90.3116C112.763 90.3116 112.83 90.1101 112.931 90.1101C113.032 90.1101 113.132 90.3452 113.132 90.3452C116.893 102.534 125.96 107.336 129.049 108.377C129.217 108.444 129.217 108.578 129.217 108.646C127.638 112.944 125.254 116.839 122.266 120.197C122.199 120.23 122.098 120.297 121.93 120.197C112.192 114.656 106.685 103.844 105.947 102.333C105.88 102.198 105.98 102.098 105.98 102.031Z" fill="#F9DE81"/>
<path d="M112.562 127.752C98.828 114.388 95.2015 90.5131 95.2015 90.5131C95.2015 90.5131 95.1343 90.1101 94.9664 90.1101C94.7985 90.1101 94.7314 90.5131 94.7314 90.5131C94.7314 90.5131 91.1385 114.388 77.3712 127.752C77.3712 127.752 77.2369 127.886 77.3712 127.987C82.5088 130.807 88.4186 132.453 94.6978 132.486H94.9329H95.1679C101.447 132.453 107.357 130.807 112.494 127.987C112.696 127.886 112.562 127.752 112.562 127.752Z" fill="#F9DE81"/>
<path d="M114.039 64.859C113.838 64.7583 113.838 65.0269 113.838 65.0269C113.871 69.325 114.442 93.0986 131.03 100.352C131.198 100.419 131.231 100.318 131.231 100.284C131.399 98.8742 131.5 97.4639 131.5 96.02C131.466 82.79 124.482 71.2725 114.039 64.859Z" fill="#F9DE81"/>
<path d="M75.9609 64.859C76.1624 64.7583 76.1624 65.0269 76.1624 65.0269C76.1288 69.325 75.558 93.0986 58.9701 100.352C58.8358 100.419 58.7686 100.318 58.7686 100.284C58.6007 98.8742 58.5 97.4639 58.5 96.02C58.5 82.79 65.4844 71.2725 75.9609 64.859Z" fill="#F9DE81"/>
<path d="M111.823 63.6166C107.088 61.1318 101.749 59.6879 96.0409 59.52C95.873 59.52 95.9066 59.7215 95.9066 59.7215C95.9066 66.9745 97.0819 83.9317 102.723 95.382C102.757 95.5163 102.857 95.4492 102.925 95.4492L102.958 95.4156C103.529 94.8112 112.293 85.1741 111.957 63.8852C111.957 63.7173 111.856 63.6166 111.823 63.6166Z" fill="#F9DE81"/>
<path d="M78.1435 63.6166C82.8781 61.1318 88.2507 59.6879 93.9255 59.52C94.0934 59.52 94.0598 59.7215 94.0598 59.7215C94.0598 66.9745 92.8846 83.9317 87.2098 95.382C87.1762 95.5163 87.0419 95.4492 87.0419 95.4492C87.0083 95.4492 87.0083 95.4156 87.0083 95.4156C86.4375 94.8112 77.6734 85.1741 78.0092 63.8852C78.0092 63.7173 78.0764 63.6166 78.1435 63.6166Z" fill="#F9DE81"/>
</g>
<defs>
<clipPath id="clip0">
<rect width="192" height="192" fill="white"/>
</clipPath>
</defs>
</svg>

<svg xmlns="http://www.w3.org/2000/svg" width="192" height="192" fill="none"><g clip-path="url(#a)"><path fill="#8E6F60" d="M172.5 29.1v133.8c0 5.3-4.3 9.6-9.6 9.6H29.1c-5.3 0-9.6-4.3-9.6-9.6V29.1c0-5.3 4.3-9.6 9.6-9.6H163c5.2 0 9.5 4.3 9.5 9.6Z"/><path fill="#F9DE81" d="M83.953 102.031c-2.284-2.35-5.037-6.179-6.75-11.72 0 0-.067-.2-.168-.2-.1 0-.201.234-.201.234-3.76 12.189-12.827 16.991-15.916 18.032-.168.067-.168.201-.168.269 1.578 4.298 3.962 8.193 6.95 11.551.068.033.168.1.336 0 9.705-5.541 15.245-16.353 15.984-17.864.067-.135 0-.235-.067-.302ZM105.98 102.031c.034 0 .034 0 0 0 2.284-2.35 5.037-6.179 6.783-11.72 0 0 .067-.2.168-.2s.201.234.201.234c3.761 12.189 12.828 16.991 15.917 18.032.168.067.168.201.168.269-1.579 4.298-3.963 8.193-6.951 11.551-.067.033-.168.1-.336 0-9.738-5.541-15.245-16.353-15.983-17.864-.067-.135.033-.235.033-.302ZM112.562 127.752c-13.734-13.364-17.36-37.239-17.36-37.239s-.068-.403-.236-.403c-.167 0-.235.403-.235.403s-3.593 23.875-17.36 37.239c0 0-.134.134 0 .235a36.34 36.34 0 0 0 17.327 4.499h.47a36.337 36.337 0 0 0 17.326-4.499c.202-.101.068-.235.068-.235ZM114.039 64.859c-.201-.1-.201.168-.201.168.033 4.298.604 28.072 17.192 35.325.168.067.201-.034.201-.068.168-1.41.269-2.82.269-4.264-.034-13.23-7.018-24.748-17.461-31.161ZM75.96 64.859c.202-.1.202.168.202.168-.033 4.298-.604 28.072-17.192 35.325-.134.067-.201-.034-.201-.068a35.884 35.884 0 0 1-.269-4.264c0-13.23 6.984-24.748 17.46-31.161ZM111.823 63.617c-4.735-2.485-10.074-3.93-15.782-4.097-.168 0-.134.201-.134.201 0 7.254 1.175 24.21 6.816 35.661.034.134.134.067.202.067l.033-.033c.571-.605 9.335-10.242 8.999-31.53 0-.169-.101-.27-.134-.27ZM78.144 63.617c4.734-2.485 10.107-3.93 15.781-4.097.168 0 .135.201.135.201 0 7.254-1.175 24.21-6.85 35.661-.034.134-.168.067-.168.067-.034 0-.034-.033-.034-.033-.57-.605-9.335-10.242-8.999-31.53 0-.169.067-.27.135-.27Z"/></g><defs><clipPath id="a"><path fill="#fff" d="M0 0h192v192H0z"/></clipPath></defs></svg>
